X:267
T:Forfar Hunt
R:Reel
B:The Athole Collection
M:C|
L:1/8
K:B Minor
BFBc d2df|ceAa fedc|BFBc d2df|cAec dBB:|
|:BbBc defd|cAec acec|1 BbBc defd|cAec dBB2:|2
BFBc dcde|fdec dBB2||

